X: 22656
T: Lake House
R: polka
M: 2/4
K: Adorian
E|:A>B cA|GA E>F|GA GE|1 A2 cB:|2 A3E||
A>B cB d2|cA c2 B2|AG E3E|
A>B cB|d2 cA|Bc AG|A3E||

